static/images/icons/gradients/lock.svg

<svg width="40" height="40" viewBox="0 0 40 40" fill="none" xmlns="http://www.w3.org/2000/svg">
<path d="M14 14V9.55556C14 8.08213 14.6321 6.66905 15.7574 5.62718C16.8826 4.58532 18.4087 4 20 4C21.5913 4 23.1174 4.58532 24.2426 5.62718C25.3679 6.66905 26 8.08213 26 9.55556V14" stroke="#FD366E" stroke-width="1.2" stroke-linecap="round" stroke-linejoin="round"/>
<path fill-rule="evenodd" clip-rule="evenodd" d="M9.11111 14H30.8889C32.6071 14 34 15.7909 34 18V32C34 34.2091 32.6071 36 30.8889 36H9.11111C7.39289 36 6 34.2091 6 32V18C6 15.7909 7.39289 14 9.11111 14ZM23.75 22.5C23.75 23.8322 23.0553 25.0021 22.0085 25.6674L23.125 31.25H16.875L17.9915 25.6674C16.9447 25.0021 16.25 23.8322 16.25 22.5C16.25 20.4289 17.9289 18.75 20 18.75C22.0711 18.75 23.75 20.4289 23.75 22.5Z" fill="url(#paint0_linear_182_410)"/>
<path d="M22.0085 25.6674L21.6867 25.1609C21.4774 25.2939 21.3715 25.5419 21.4201 25.785L22.0085 25.6674ZM23.125 31.25V31.85C23.3048 31.85 23.475 31.7694 23.589 31.6304C23.703 31.4914 23.7486 31.3086 23.7133 31.1323L23.125 31.25ZM16.875 31.25L16.2867 31.1323C16.2514 31.3086 16.297 31.4914 16.411 31.6304C16.525 31.7694 16.6952 31.85 16.875 31.85V31.25ZM17.9915 25.6674L18.5799 25.785C18.6285 25.5419 18.5226 25.2939 18.3133 25.1609L17.9915 25.6674ZM30.8889 13.4H9.11111V14.6H30.8889V13.4ZM34.6 18C34.6 15.6086 33.0701 13.4 30.8889 13.4V14.6C32.1441 14.6 33.4 15.9732 33.4 18H34.6ZM34.6 32V18H33.4V32H34.6ZM30.8889 36.6C33.0701 36.6 34.6 34.3914 34.6 32H33.4C33.4 34.0268 32.1441 35.4 30.8889 35.4V36.6ZM9.11111 36.6H30.8889V35.4H9.11111V36.6ZM5.4 32C5.4 34.3914 6.92993 36.6 9.11111 36.6V35.4C7.85586 35.4 6.6 34.0268 6.6 32H5.4ZM5.4 18V32H6.6V18H5.4ZM9.11111 13.4C6.92993 13.4 5.4 15.6086 5.4 18H6.6C6.6 15.9732 7.85586 14.6 9.11111 14.6V13.4ZM22.3303 26.1738C23.5431 25.4031 24.35 24.046 24.35 22.5H23.15C23.15 23.6184 22.5676 24.6012 21.6867 25.1609L22.3303 26.1738ZM23.7133 31.1323L22.5968 25.5497L21.4201 25.785L22.5367 31.3677L23.7133 31.1323ZM16.875 31.85H23.125V30.65H16.875V31.85ZM17.4032 25.5497L16.2867 31.1323L17.4633 31.3677L18.5799 25.785L17.4032 25.5497ZM15.65 22.5C15.65 24.046 16.4569 25.4031 17.6697 26.1738L18.3133 25.1609C17.4324 24.6012 16.85 23.6184 16.85 22.5H15.65ZM20 18.15C17.5976 18.15 15.65 20.0976 15.65 22.5H16.85C16.85 20.7603 18.2603 19.35 20 19.35V18.15ZM24.35 22.5C24.35 20.0976 22.4024 18.15 20 18.15V19.35C21.7397 19.35 23.15 20.7603 23.15 22.5H24.35Z" fill="#FD366E"/>
<g filter="url(#filter0_b_182_410)">
<path d="M22.0085 25.6674L21.6867 25.1609C21.4774 25.2939 21.3715 25.5419 21.4201 25.785L22.0085 25.6674ZM17.9915 25.6674L18.5799 25.785C18.6285 25.5419 18.5226 25.2939 18.3133 25.1609L17.9915 25.6674ZM16.875 31.25L16.2867 31.1323C16.2514 31.3086 16.297 31.4914 16.411 31.6304C16.525 31.7694 16.6952 31.85 16.875 31.85V31.25ZM23.125 31.25V31.85C23.3048 31.85 23.475 31.7694 23.589 31.6304C23.703 31.4914 23.7486 31.3086 23.7133 31.1323L23.125 31.25ZM23.15 22.5C23.15 23.6184 22.5676 24.6012 21.6867 25.1609L22.3303 26.1738C23.5431 25.4031 24.35 24.046 24.35 22.5H23.15ZM20 19.35C21.7397 19.35 23.15 20.7603 23.15 22.5H24.35C24.35 20.0976 22.4024 18.15 20 18.15V19.35ZM16.85 22.5C16.85 20.7603 18.2603 19.35 20 19.35V18.15C17.5976 18.15 15.65 20.0976 15.65 22.5H16.85ZM18.3133 25.1609C17.4324 24.6012 16.85 23.6184 16.85 22.5H15.65C15.65 24.046 16.4569 25.4031 17.6697 26.1738L18.3133 25.1609ZM17.4633 31.3677L18.5799 25.785L17.4032 25.5497L16.2867 31.1323L17.4633 31.3677ZM23.125 30.65H16.875V31.85H23.125V30.65ZM21.4201 25.785L22.5367 31.3677L23.7133 31.1323L22.5968 25.5497L21.4201 25.785Z" fill="#FD366E"/>
</g>
<defs>
<filter id="filter0_b_182_410" x="9.6499" y="12.1499" width="20.7002" height="25.7002" filterUnits="userSpaceOnUse" color-interpolation-filters="sRGB">
<feFlood flood-opacity="0" result="BackgroundImageFix"/>
<feGaussianBlur in="BackgroundImageFix" stdDeviation="3"/>
<feComposite in2="SourceAlpha" operator="in" result="effect1_backgroundBlur_182_410"/>
<feBlend mode="normal" in="SourceGraphic" in2="effect1_backgroundBlur_182_410" result="shape"/>
</filter>
<linearGradient id="paint0_linear_182_410" x1="20.0018" y1="13.75" x2="20.0018" y2="36.25" gradientUnits="userSpaceOnUse">
<stop stop-color="#FD366E" stop-opacity="0"/>
<stop offset="1" stop-color="#FD366E" stop-opacity="0.32"/>
</linearGradient>
</defs>
</svg>

<svg xmlns="http://www.w3.org/2000/svg" width="40" height="40" fill="none"><path stroke="#FD366E" stroke-linecap="round" stroke-linejoin="round" stroke-width="1.2" d="M14 14V9.556c0-1.474.632-2.887 1.757-3.929C16.883 4.585 18.41 4 20 4c1.591 0 3.117.585 4.243 1.627C25.368 6.67 26 8.082 26 9.556V14"/><path fill="url(#a)" d="M30.889 14H9.11C7.393 14 6 15.79 6 18v14c0 2.21 1.393 4 3.111 4H30.89C32.607 36 34 34.21 34 32V18c0-2.21-1.393-4-3.111-4Z"/><path fill="#FD366E" d="M9.111 14.6H30.89v-1.2H9.11v1.2Zm21.778 0c1.255 0 2.511 1.373 2.511 3.4h1.2c0-2.391-1.53-4.6-3.711-4.6v1.2ZM33.4 18v14h1.2V18h-1.2Zm0 14c0 2.027-1.256 3.4-2.511 3.4v1.2c2.181 0 3.711-2.209 3.711-4.6h-1.2Zm-2.511 3.4H9.11v1.2H30.89v-1.2Zm-21.778 0C7.856 35.4 6.6 34.027 6.6 32H5.4c0 2.391 1.53 4.6 3.711 4.6v-1.2ZM6.6 32V18H5.4v14h1.2Zm0-14c0-2.027 1.256-3.4 2.511-3.4v-1.2C6.93 13.4 5.4 15.609 5.4 18h1.2Z"/><g filter="url(#b)"><path fill="#fff" fill-opacity=".64" fill-rule="evenodd" d="M22.009 25.667a3.75 3.75 0 1 0-4.017 0l-1.117 5.583h6.25l-1.116-5.583Z" clip-rule="evenodd"/><path fill="#FD366E" d="m22.009 25.667-.322-.506a.6.6 0 0 0-.267.624l.588-.118Zm-4.018 0 .589.118a.6.6 0 0 0-.267-.624l-.322.506Zm-1.116 5.583-.588-.118a.6.6 0 0 0 .588.718v-.6Zm6.25 0v.6a.6.6 0 0 0 .588-.718l-.588.118Zm.025-8.75a3.147 3.147 0 0 1-1.463 2.66l.643 1.014a4.347 4.347 0 0 0 2.02-3.674h-1.2ZM20 19.35a3.15 3.15 0 0 1 3.15 3.15h1.2A4.35 4.35 0 0 0 20 18.15v1.2Zm-3.15 3.15A3.15 3.15 0 0 1 20 19.35v-1.2a4.35 4.35 0 0 0-4.35 4.35h1.2Zm1.463 2.66a3.147 3.147 0 0 1-1.463-2.66h-1.2c0 1.546.807 2.903 2.02 3.674l.643-1.013Zm-.85 6.208 1.117-5.583-1.177-.235-1.116 5.582 1.176.236Zm5.662-.718h-6.25v1.2h6.25v-1.2Zm-1.705-4.865 1.117 5.583 1.176-.236-1.116-5.582-1.177.235Z"/></g><defs><linearGradient id="a" x1="20.002" x2="20.002" y1="13.75" y2="36.25" gradientUnits="userSpaceOnUse"><stop stop-color="#FD366E" stop-opacity="0"/><stop offset="1" stop-color="#FD366E" stop-opacity=".32"/></linearGradient><filter id="b" width="20.699" height="25.703" x="9.65" y="12.148" color-interpolation-filters="sRGB" filterUnits="userSpaceOnUse"><feFlood flood-opacity="0" result="BackgroundImageFix"/><feGaussianBlur in="BackgroundImageFix" stdDeviation="3"/><feComposite in2="SourceAlpha" operator="in" result="effect1_backgroundBlur_1881_6145"/><feBlend in="SourceGraphic" in2="effect1_backgroundBlur_1881_6145" result="shape"/></filter></defs></svg>
